Newaita-dark/apps/24/accessories-notes.svg

<svg height="24pt" viewBox="0 0 24 24" width="24pt" xmlns="http://www.w3.org/2000/svg" xmlns:xlink="http://www.w3.org/1999/xlink"><linearGradient id="a" gradientUnits="userSpaceOnUse" x1="11.90739" x2="11.90739" y1="21.02545225" y2="22.01773525002"><stop offset="0" stop-opacity=".27451"/><stop offset="1" stop-opacity="0"/></linearGradient><linearGradient id="b"><stop offset="0" stop-opacity=".313726"/><stop offset=".222222" stop-opacity=".27451"/><stop offset="1" stop-opacity="0"/></linearGradient><radialGradient id="c" cx="450.908936" cy="189.579361" gradientTransform="matrix(.00000013 -.0585994 -.105479 -.00000008 37.609564 47.696499)" gradientUnits="userSpaceOnUse" r="21.166656" xlink:href="#b"/><radialGradient id="d" cx="450.908936" cy="189.579361" gradientTransform="matrix(-.00000013 .0585994 .105479 .00000008 -13.794787 -5.64561)" gradientUnits="userSpaceOnUse" r="21.166656" xlink:href="#b"/><radialGradient id="e" cx="450.908936" cy="189.579361" gradientTransform="matrix(-.00000013 -.0585994 .105479 -.00000008 -13.794787 47.696499)" gradientUnits="userSpaceOnUse" r="21.166656" xlink:href="#b"/><radialGradient id="f" cx="450.908936" cy="189.579361" gradientTransform="matrix(.00000013 .0585994 -.105479 .00000008 37.609563 -5.64561)" gradientUnits="userSpaceOnUse" r="21.166656" xlink:href="#b"/><linearGradient id="g"><stop offset="0" stop-color="#ffcc80"/><stop offset="1" stop-color="#ffb74d"/></linearGradient><linearGradient id="h" gradientTransform="matrix(.0565122 0 0 .163059 -4.39051 25.231011)" gradientUnits="userSpaceOnUse" x1="323.513245" x2="323.513245" xlink:href="#g" y1="-141.414581" y2="-25.791676"/><linearGradient id="i" gradientUnits="userSpaceOnUse" x1="285.75" x2="285.75" xlink:href="#g" y1="-31.083334" y2="-84"/><linearGradient id="j" gradientUnits="userSpaceOnUse" x1="960" x2="960" y1="1695.118164" y2="175.118134"><stop offset="0" stop-color="#424242"/><stop offset="1" stop-color="#616161"/></linearGradient><path d="m5.953125 21.027344h11.90625v.992187h-11.90625zm0 0" fill="url(#a)"/><path d="m17.859375 21.027344h1.984375v-.996094h-1.984375zm0 0" fill="url(#c)"/><path d="m5.953125 21.027344h-1.984375v.992187h1.984375zm0 0" fill="url(#d)"/><path d="m5.953125 21.027344h-1.984375v-.996094h1.984375zm0 0" fill="url(#e)"/><path d="m17.859375 21.027344h1.984375v.992187h-1.984375zm0 0" fill="url(#f)"/><path d="m4.960938 2.171875h13.890624c.550782 0 .992188.445313.992188.992187v16.867188c0 .550781-.441406.996094-.992188.996094h-13.890624c-.546876 0-.992188-.445313-.992188-.996094v-16.867188c0-.546874.445312-.992187.992188-.992187zm0 0" fill="url(#h)"/><path d="m3.96875 6.636719.992188 1.488281.496093-.496094.992188.992188.992187-.992188.496094.496094.496094-.496094.992187.992188.992188-.992188.496093.496094.496094-.496094.496094.496094.496094-.496094.992187 1.488282.992188-.992188.496093.496094.992188-.992188.496094.496094.992187-.992188.496094.992188.496094-.496094.496093.992188.992188-1.488282v-.496093zm0 0" fill-opacity=".235294"/><path d="m84.658582-84.012509 21.164646 31.746969 10.582322-10.582323 21.164646 21.164645 21.164646-21.164645 10.582322 10.582323 10.582323-10.582323 21.164646 21.164645 21.164645-21.164645 10.582323 10.582323 10.582323-10.582323 10.582323 10.582323 10.582322-10.582323 21.164646 31.746968 21.164645-21.164645 10.582323 10.582322 21.164646-21.164645 10.582322 10.582323 21.164646-21.164646 10.582323 21.164646 10.582323-10.582323 10.582322 21.164645 21.164646-31.746968v-10.582323zm0 0" fill="url(#i)" stroke="#212121" stroke-width="3" transform="matrix(.0468795 0 0 .0468795 0 10.079087)"/><path d="m4.960938 2.667969c-.550782 0-.992188.441406-.992188.992187v2.976563h15.875v-2.976563c0-.550781-.441406-.992187-.992188-.992187zm0 0" fill-opacity=".235294"/><path d="m399.961827 175.101398c-44.405211 0-79.992366 35.587155-79.992366 79.992365v239.977096h1279.877845v-239.977096c0-44.40521-35.587154-79.992365-79.992365-79.992365zm0 0" fill="url(#j)" stroke="#212121" stroke-linecap="round" stroke-linejoin="round" stroke-width="11.338583" transform="scale(.0124035)"/><path d="m4.960938 20.96875c-.550782 0-.992188-.441406-.992188-.992188v-.125c0 .550782.441406.992188.992188.992188h13.890624c.550782 0 .992188-.441406.992188-.992188v.125c0 .550782-.441406.992188-.992188.992188zm0 0" fill-opacity=".196078"/><path d="m4.960938 2.226562c-.550782 0-.992188.445313-.992188.992188v.125c0-.550781.441406-.992188.992188-.992188h13.890624c.550782 0 .992188.441407.992188.992188v-.125c0-.546875-.441406-.992188-.992188-.992188zm0 0" fill="#fff" fill-opacity=".392157"/><path d="m4.960938 2.101562c-.585938 0-1.0625.476563-1.0625 1.0625v16.867188c0 .589844.476562 1.066406 1.0625 1.066406h13.890624c.589844 0 1.0625-.476562 1.0625-1.066406v-16.867188c0-.585937-.472656-1.0625-1.0625-1.0625zm0 .140626h13.890624c.515626 0 .921876.410156.921876.921874v16.867188c0 .515625-.40625.925781-.921876.925781h-13.890624c-.511719 0-.921876-.410156-.921876-.925781v-16.867188c0-.511718.410157-.921874.921876-.921874zm0 0" fill="#212121"/></svg>

<?xml version="1.0" encoding="UTF-8"?>
<svg xmlns="http://www.w3.org/2000/svg" xmlns:xlink="http://www.w3.org/1999/xlink" width="24pt" height="24pt" viewBox="0 0 24 24" version="1.1">
<defs>
<linearGradient id="linear0" gradientUnits="userSpaceOnUse" x1="254" y1="233.5" x2="254" y2="254.666672" gradientTransform="matrix(0.0468795,0,0,0.0468795,-0.0000028613,10.079089)">
<stop offset="0" style="stop-color:rgb(0%,0%,0%);stop-opacity:0.27451;"/>
<stop offset="1" style="stop-color:rgb(0%,0%,0%);stop-opacity:0;"/>
</linearGradient>
<radialGradient id="radial0" gradientUnits="userSpaceOnUse" cx="450.908936" cy="189.579361" fx="450.908936" fy="189.579361" r="21.166656" gradientTransform="matrix(0.000000130628,-0.0585994,-0.105479,-0.0000000761539,37.609564,47.696499)">
<stop offset="0" style="stop-color:rgb(0%,0%,0%);stop-opacity:0.313726;"/>
<stop offset="0.222222" style="stop-color:rgb(0%,0%,0%);stop-opacity:0.27451;"/>
<stop offset="1" style="stop-color:rgb(0%,0%,0%);stop-opacity:0;"/>
</radialGradient>
<radialGradient id="radial1" gradientUnits="userSpaceOnUse" cx="450.908936" cy="189.579361" fx="450.908936" fy="189.579361" r="21.166656" gradientTransform="matrix(-0.000000130628,0.0585994,0.105479,0.0000000761539,-13.794787,-5.64561)">
<stop offset="0" style="stop-color:rgb(0%,0%,0%);stop-opacity:0.313726;"/>
<stop offset="0.222222" style="stop-color:rgb(0%,0%,0%);stop-opacity:0.27451;"/>
<stop offset="1" style="stop-color:rgb(0%,0%,0%);stop-opacity:0;"/>
</radialGradient>
<radialGradient id="radial2" gradientUnits="userSpaceOnUse" cx="450.908936" cy="189.579361" fx="450.908936" fy="189.579361" r="21.166656" gradientTransform="matrix(-0.000000130628,-0.0585994,0.105479,-0.0000000761539,-13.794787,47.696499)">
<stop offset="0" style="stop-color:rgb(0%,0%,0%);stop-opacity:0.313726;"/>
<stop offset="0.222222" style="stop-color:rgb(0%,0%,0%);stop-opacity:0.27451;"/>
<stop offset="1" style="stop-color:rgb(0%,0%,0%);stop-opacity:0;"/>
</radialGradient>
<radialGradient id="radial3" gradientUnits="userSpaceOnUse" cx="450.908936" cy="189.579361" fx="450.908936" fy="189.579361" r="21.166656" gradientTransform="matrix(0.000000130628,0.0585994,-0.105479,0.0000000761539,37.609563,-5.64561)">
<stop offset="0" style="stop-color:rgb(0%,0%,0%);stop-opacity:0.313726;"/>
<stop offset="0.222222" style="stop-color:rgb(0%,0%,0%);stop-opacity:0.27451;"/>
<stop offset="1" style="stop-color:rgb(0%,0%,0%);stop-opacity:0;"/>
</radialGradient>
<linearGradient id="linear1" gradientUnits="userSpaceOnUse" x1="323.513245" y1="-141.414581" x2="323.513245" y2="-25.791676" gradientTransform="matrix(0.0565122,0,0,0.163059,-4.39051,25.231011)">
<stop offset="0" style="stop-color:rgb(100%,80.000001%,50.196081%);stop-opacity:1;"/>
<stop offset="1" style="stop-color:rgb(100%,71.764708%,30.19608%);stop-opacity:1;"/>
</linearGradient>
<linearGradient id="linear2" gradientUnits="userSpaceOnUse" x1="285.75" y1="-31.083334" x2="285.75" y2="-84" gradientTransform="matrix(1,0,0,1,0,0)">
<stop offset="0" style="stop-color:rgb(100%,80.000001%,50.196081%);stop-opacity:1;"/>
<stop offset="1" style="stop-color:rgb(100%,71.764708%,30.19608%);stop-opacity:1;"/>
</linearGradient>
<linearGradient id="linear3" gradientUnits="userSpaceOnUse" x1="960" y1="1695.118164" x2="960" y2="175.118134" gradientTransform="matrix(1,0,0,1,0,-0)">
<stop offset="0" style="stop-color:rgb(25.882354%,25.882354%,25.882354%);stop-opacity:1;"/>
<stop offset="1" style="stop-color:rgb(38.039216%,38.039216%,38.039216%);stop-opacity:1;"/>
</linearGradient>
</defs>
<g id="surface1">
<path style=" stroke:none;fill-rule:nonzero;fill:url(#linear0);" d="M 5.953125 21.027344 L 17.859375 21.027344 L 17.859375 22.019531 L 5.953125 22.019531 Z M 5.953125 21.027344 "/>
<path style=" stroke:none;fill-rule:nonzero;fill:url(#radial0);" d="M 17.859375 21.027344 L 19.84375 21.027344 L 19.84375 20.03125 L 17.859375 20.03125 Z M 17.859375 21.027344 "/>
<path style=" stroke:none;fill-rule:nonzero;fill:url(#radial1);" d="M 5.953125 21.027344 L 3.96875 21.027344 L 3.96875 22.019531 L 5.953125 22.019531 Z M 5.953125 21.027344 "/>
<path style=" stroke:none;fill-rule:nonzero;fill:url(#radial2);" d="M 5.953125 21.027344 L 3.96875 21.027344 L 3.96875 20.03125 L 5.953125 20.03125 Z M 5.953125 21.027344 "/>
<path style=" stroke:none;fill-rule:nonzero;fill:url(#radial3);" d="M 17.859375 21.027344 L 19.84375 21.027344 L 19.84375 22.019531 L 17.859375 22.019531 Z M 17.859375 21.027344 "/>
<path style=" stroke:none;fill-rule:nonzero;fill:url(#linear1);" d="M 4.960938 2.171875 L 18.851562 2.171875 C 19.402344 2.171875 19.84375 2.617188 19.84375 3.164062 L 19.84375 20.03125 C 19.84375 20.582031 19.402344 21.027344 18.851562 21.027344 L 4.960938 21.027344 C 4.414062 21.027344 3.96875 20.582031 3.96875 20.03125 L 3.96875 3.164062 C 3.96875 2.617188 4.414062 2.171875 4.960938 2.171875 Z M 4.960938 2.171875 "/>
<path style=" stroke:none;fill-rule:nonzero;fill:rgb(0%,0%,0%);fill-opacity:0.235294;" d="M 3.96875 6.636719 L 4.960938 8.125 L 5.457031 7.628906 L 6.449219 8.621094 L 7.441406 7.628906 L 7.9375 8.125 L 8.433594 7.628906 L 9.425781 8.621094 L 10.417969 7.628906 L 10.914062 8.125 L 11.410156 7.628906 L 11.90625 8.125 L 12.402344 7.628906 L 13.394531 9.117188 L 14.386719 8.125 L 14.882812 8.621094 L 15.875 7.628906 L 16.371094 8.125 L 17.363281 7.132812 L 17.859375 8.125 L 18.355469 7.628906 L 18.851562 8.621094 L 19.84375 7.132812 L 19.84375 6.636719 Z M 3.96875 6.636719 "/>
<path style="fill-rule:nonzero;fill:url(#linear2);stroke-width:3;stroke-linecap:butt;stroke-linejoin:miter;stroke:rgb(12.941177%,12.941177%,12.941177%);stroke-opacity:1;stroke-miterlimit:4;" d="M 84.658582 -84.012509 L 105.823228 -52.26554 L 116.40555 -62.847863 L 137.570196 -41.683218 L 158.734842 -62.847863 L 169.317164 -52.26554 L 179.899487 -62.847863 L 201.064133 -41.683218 L 222.228778 -62.847863 L 232.811101 -52.26554 L 243.393424 -62.847863 L 253.975747 -52.26554 L 264.558069 -62.847863 L 285.722715 -31.100895 L 306.88736 -52.26554 L 317.469683 -41.683218 L 338.634329 -62.847863 L 349.216651 -52.26554 L 370.381297 -73.430186 L 380.96362 -52.26554 L 391.545943 -62.847863 L 402.128265 -41.683218 L 423.292911 -73.430186 L 423.292911 -84.012509 Z M 84.658582 -84.012509 " transform="matrix(0.0468795,0,0,0.0468795,0,10.079087)"/>
<path style=" stroke:none;fill-rule:nonzero;fill:rgb(0%,0%,0%);fill-opacity:0.235294;" d="M 4.960938 2.667969 C 4.410156 2.667969 3.96875 3.109375 3.96875 3.660156 L 3.96875 6.636719 L 19.84375 6.636719 L 19.84375 3.660156 C 19.84375 3.109375 19.402344 2.667969 18.851562 2.667969 Z M 4.960938 2.667969 "/>
<path style="fill-rule:nonzero;fill:url(#linear3);stroke-width:11.338583;stroke-linecap:round;stroke-linejoin:round;stroke:rgb(12.941177%,12.941177%,12.941177%);stroke-opacity:1;stroke-miterlimit:4;" d="M 399.961827 175.101398 C 355.556616 175.101398 319.969461 210.688553 319.969461 255.093763 L 319.969461 495.070859 L 1599.847306 495.070859 L 1599.847306 255.093763 C 1599.847306 210.688553 1564.260152 175.101398 1519.854941 175.101398 Z M 399.961827 175.101398 " transform="matrix(0.0124035,0,0,0.0124035,0,0)"/>
<path style=" stroke:none;fill-rule:nonzero;fill:rgb(0%,0%,0%);fill-opacity:0.196078;" d="M 4.960938 20.96875 C 4.410156 20.96875 3.96875 20.527344 3.96875 19.976562 L 3.96875 19.851562 C 3.96875 20.402344 4.410156 20.84375 4.960938 20.84375 L 18.851562 20.84375 C 19.402344 20.84375 19.84375 20.402344 19.84375 19.851562 L 19.84375 19.976562 C 19.84375 20.527344 19.402344 20.96875 18.851562 20.96875 Z M 4.960938 20.96875 "/>
<path style=" stroke:none;fill-rule:nonzero;fill:rgb(100%,100%,100%);fill-opacity:0.392157;" d="M 4.960938 2.226562 C 4.410156 2.226562 3.96875 2.671875 3.96875 3.21875 L 3.96875 3.34375 C 3.96875 2.792969 4.410156 2.351562 4.960938 2.351562 L 18.851562 2.351562 C 19.402344 2.351562 19.84375 2.792969 19.84375 3.34375 L 19.84375 3.21875 C 19.84375 2.671875 19.402344 2.226562 18.851562 2.226562 Z M 4.960938 2.226562 "/>
<path style=" stroke:none;fill-rule:nonzero;fill:rgb(12.941177%,12.941177%,12.941177%);fill-opacity:1;" d="M 4.960938 2.101562 C 4.375 2.101562 3.898438 2.578125 3.898438 3.164062 L 3.898438 20.03125 C 3.898438 20.621094 4.375 21.097656 4.960938 21.097656 L 18.851562 21.097656 C 19.441406 21.097656 19.914062 20.621094 19.914062 20.03125 L 19.914062 3.164062 C 19.914062 2.578125 19.441406 2.101562 18.851562 2.101562 Z M 4.960938 2.242188 L 18.851562 2.242188 C 19.367188 2.242188 19.773438 2.652344 19.773438 3.164062 L 19.773438 20.03125 C 19.773438 20.546875 19.367188 20.957031 18.851562 20.957031 L 4.960938 20.957031 C 4.449219 20.957031 4.039062 20.546875 4.039062 20.03125 L 4.039062 3.164062 C 4.039062 2.652344 4.449219 2.242188 4.960938 2.242188 Z M 4.960938 2.242188 "/>
</g>
</svg>
